X: 13
T:Milley's Bequest
M:4/4
L:1/4
Q:85
S:Lichfield Morris Dance
K:G
D| G G/2A/2 B G | E2 c2| D D/2E/2 F c|B2 A2|G G/2A/2 B G| E2c2|  D>E F A
| A2 G2||
B/2c/2| dd cc| B/2c/2d/2B/2  A B/2c/2| dd cc|  B2 A2| G G/2A/2 B G|E2c2|
 D>E F A | A2G2:||
